svgs/regular/grip-vertical.svg

<svg xmlns="http://www.w3.org/2000/svg" viewBox="0 0 320 512"><!--! Font Awesome Pro 6.3.0 by @fontawesome - https://fontawesome.com License - https://fontawesome.com/license (Commercial License) Copyright 2023 Fonticons, Inc. --><path d="M40 440l48 0 0-48-48 0 0 48zm0 40c-22.1 0-40-17.9-40-40l0-48c0-22.1 17.9-40 40-40l48 0c22.1 0 40 17.9 40 40l0 48c0 22.1-17.9 40-40 40l-48 0zm192-40l48 0 0-48-48 0 0 48zm0 40c-22.1 0-40-17.9-40-40l0-48c0-22.1 17.9-40 40-40l48 0c22.1 0 40 17.9 40 40l0 48c0 22.1-17.9 40-40 40l-48 0zM40 232l0 48 48 0 0-48-48 0zM0 280l0-48c0-22.1 17.9-40 40-40l48 0c22.1 0 40 17.9 40 40l0 48c0 22.1-17.9 40-40 40l-48 0c-22.1 0-40-17.9-40-40zm232 0l48 0 0-48-48 0 0 48zm0 40c-22.1 0-40-17.9-40-40l0-48c0-22.1 17.9-40 40-40l48 0c22.1 0 40 17.9 40 40l0 48c0 22.1-17.9 40-40 40l-48 0zM40 72l0 48 48 0 0-48L40 72zM0 120L0 72C0 49.9 17.9 32 40 32l48 0c22.1 0 40 17.9 40 40l0 48c0 22.1-17.9 40-40 40l-48 0c-22.1 0-40-17.9-40-40zm232 0l48 0 0-48-48 0 0 48zm0 40c-22.1 0-40-17.9-40-40l0-48c0-22.1 17.9-40 40-40l48 0c22.1 0 40 17.9 40 40l0 48c0 22.1-17.9 40-40 40l-48 0z"/></svg>

<svg xmlns="http://www.w3.org/2000/svg" viewBox="0 0 320 512"><!--! Font Awesome Pro 6.2.0 by @fontawesome - https://fontawesome.com License - https://fontawesome.com/license (Commercial License) Copyright 2022 Fonticons, Inc. --><path d="M40 480C17.91 480 0 462.1 0 440V392C0 369.9 17.91 352 40 352H88C110.1 352 128 369.9 128 392V440C128 462.1 110.1 480 88 480H40zM88 440V392H40V440H88zM232 480C209.9 480 192 462.1 192 440V392C192 369.9 209.9 352 232 352H280C302.1 352 320 369.9 320 392V440C320 462.1 302.1 480 280 480H232zM280 440V392H232V440H280zM0 232C0 209.9 17.91 192 40 192H88C110.1 192 128 209.9 128 232V280C128 302.1 110.1 320 88 320H40C17.91 320 0 302.1 0 280V232zM40 232V280H88V232H40zM232 320C209.9 320 192 302.1 192 280V232C192 209.9 209.9 192 232 192H280C302.1 192 320 209.9 320 232V280C320 302.1 302.1 320 280 320H232zM280 280V232H232V280H280zM0 72C0 49.91 17.91 32 40 32H88C110.1 32 128 49.91 128 72V120C128 142.1 110.1 160 88 160H40C17.91 160 0 142.1 0 120V72zM40 72V120H88V72H40zM232 160C209.9 160 192 142.1 192 120V72C192 49.91 209.9 32 232 32H280C302.1 32 320 49.91 320 72V120C320 142.1 302.1 160 280 160H232zM280 120V72H232V120H280z"/></svg>
